X: 012
T: Windsor Waltz
%R: 2altz
B: J.Gray's Twenty four Country Dances (for the Year 1812) p.1 #2
S: http://www.eatmt.org.uk/gray_1812.htm 2014-8-7
Z: 2014 John Chambers <jc:trillian.mit.edu>
N: The 3d strain has initial repeat but no final repeat; not fixed.  It's probably repeated, too.
M: 3/8
L: 1/16
K: Bb
B,2 |\
D2F2F2 | E2G2G2 | A2c2c2 | cBAGFE |\
B,2D2F2 | E2G2c2 | BAGFGA | B4 :|
|: F2 |\
(B2=B2)(c2 | ^c2)d2g2 | edcBAc | (B3A2)F |\
B2=B2c2 | ^c2d2g2 | edcBAc | B4 :|
|: ((3fga) |\
(bfd)BFD | (B,DF)Bdg | (fed)cBA | (BAG)FED |\
(bfd)BFD | (B,DF) Bdg | (ed)cBAc | B4 |]
% - - - - - - - - - - - - - - - - - - - - - - - - -
%%begintext align
%% 1st LADY set to the 2d Gent. & turn. 1st Gent. do
%% same down mid. up again. allemade swing corners.
%%endtext
% - - - - - - - - - - - - - - - - - - - - - - - - -
